X:1
T:Hanover, 10.10.11.11
T:William Croft, 1708
T:Hanover, 10.10.11.11
T:Public Domain
C:William Croft, 1708
Z:Public Domain
%%score ( 1 2 ) ( 3 4 )
L:1/8
M:3/4
K:Ab
V:1 treble 
V:2 treble 
V:3 bass 
V:4 bass 
V:1
 [CE]2 | [EA]2 [EA]2 [EB]2 | [Ec]4 [Ee]2 | [FA]2 [FB]2 [EG]2 | [EA]4 [EB]2 | [Ec]2 [EB]2 (E=D) | %6
 [EG]4 [EA]2 | [EB]2 (AG) [=DF]2 | E4 [=EG]2 | [FA]2 [GB]2 [Gc]2 | [FA]2 F2 [Ed]2 | %11
 [Ec]2 [EB]2 [=DA]2 | [Ee]4 E2 | F2 [DG]2 (C=D) | [EB]2 E2 [Ec]2 | [DF]2 [FB]2 (ED) | [CA]4 |] %17
V:2
 x2 | x6 | x6 | x6 | x6 | x4 A2 | x6 | x2 E2 x2 | =E4 x2 | x6 | x2 F2 x2 | x6 | x4 E2 | E2 A2 x2 | %14
 x6 | x4 G2 | x4 |] %17
V:3
 [A,,A,]2 | [A,,C]2 [C,A,]2 [E,G,]2 | A,4 [G,B,]2 | [F,C]2 [D,D]2 [E,B,]2 | [A,,C]4 [E,G,]2 | %5
 A,2 [G,B,]2 (CA,) | [E,B,]4 [C,C]2 | [G,,B,]2 (CB,) [B,,A,]2 | [E,G,]4 [C,C]2 | %9
 [F,C]2 [F,D]2 [=E,C]2 | [F,C]2 [F,A,]2 [G,B,]2 | A,2 [G,B,]2 (B,A,) | [E,G,]4 [C,C]2 | %13
 [D,C]2 [E,B,]2 [F,A,]2 | [E,G,]2 [G,B,]2 A,2 | [D,A,]2 [B,,D]2 [E,B,]2 | [A,,A,]4 |] %17
V:4
 x2 | x6 | A,4 x2 | x6 | x6 | A,2 F,2 x2 | x6 | x2 A,,2 x2 | x6 | x6 | x6 | A,2 F,2 x2 | x6 | x6 | %14
 x4 A,2 | x6 | x4 |] %17

